X:54
T:Cuckoo's Nest, Longborough 1
R:hp 24
A:Longborough
P:A(AB2)4A
M:4/4
L:1/8
K:G
P:A
|:BcBA G2g2|dedB c2Bc|dcBA GFGA|B2G2 G4:|
P:B
d2d2 d2ed|c2A2 A2AB|c2c2 c2dc|B2G2 G4 |
BcBA G2g2|dedB c2Bc|dcBA GFGA|B2G2 G4||

